images/sdv-orange.svg

<svg xmlns="http://www.w3.org/2000/svg" width="70" height="111" viewBox="0 0 70 111"><title>Artboard Copy 2</title><g fill="none"><path fill="#FF9300" d="M42.1 0H27.5C12.4 0 .2 12.1 0 27v56.4c0 15 12.1 27.2 27 27.4h15.1c15 0 27.2-12 27.4-27V27.5c0-15.1-12-27.3-27-27.5h-.4z"/><path fill="#FFF" d="M40.6 96.4c4.8 0 8.5-1.3 11-3.8s3.7-6.1 3.7-11V55l-27-8.8V32.1c0-1.3.3-2.3 1-3.1.7-.7 1.8-1 3.1-1h4.9c2.7 0 4.1 1.3 4.1 4.1v9.6l13.9 4.5v-17c0-4.8-1.2-8.5-3.7-11s-6.2-3.7-11-3.7H29.1c-4.8 0-8.5 1.2-11 3.7-2.5 2.6-3.8 6.2-3.8 11v27l27.1 8.9v13.7c0 2.7-1.4 4.1-4.1 4.1h-4.9c-2.8 0-4.1-1.4-4.1-4.1l-.1-9.6-13.9-4.1v16.5c0 4.8 1.3 8.5 3.8 11s6.2 3.8 11 3.8h11.5z"/></g></svg>

<svg xmlns="http://www.w3.org/2000/svg" width="70" height="111" viewBox="0 0 70 111"><title>  Artboard Copy 2</title><desc>  Created with Sketch Beta.</desc><g fill="none"><path d="M42.1 0L27.5 0C12.4 0 0.2 12.1 0 27L0 27.5 0 83.4C0 98.4 12.1 110.6 27 110.8L27.5 110.8 42.1 110.8C57.1 110.8 69.3 98.8 69.5 83.8L69.5 83.4 69.5 27.5C69.5 12.4 57.5 0.2 42.5 0L42.1 0Z" fill="#FF9300"/><path d="M40.6 96.4C45.4 96.4 49.1 95.1 51.6 92.6 54.1 90.1 55.3 86.5 55.3 81.6L55.3 55 28.3 46.2 28.3 32.1C28.3 30.8 28.6 29.8 29.3 29 30 28.3 31.1 28 32.4 28L37.3 28C40 28 41.4 29.3 41.4 32.1L41.4 41.7 55.3 46.2 55.3 29.2C55.3 24.4 54.1 20.7 51.6 18.2 49.1 15.7 45.4 14.5 40.6 14.5L29.1 14.5C24.3 14.5 20.6 15.7 18.1 18.2 15.6 20.8 14.3 24.4 14.3 29.2L14.3 56.2 41.4 65.1 41.4 78.8C41.4 81.5 40 82.9 37.3 82.9L32.4 82.9C29.6 82.9 28.3 81.5 28.3 78.8L28.2 69.2 14.3 65.1 14.3 81.6C14.3 86.4 15.6 90.1 18.1 92.6 20.6 95.1 24.3 96.4 29.1 96.4L40.6 96.4Z" fill="#FFF"/></g></svg>
